packages/dnb-eufemia/assets/icons/loan_in_medium.svg

<svg width="24" height="24" viewBox="0 0 24 24" fill="none" xmlns="http://www.w3.org/2000/svg">
<path d="M23.25 21C23.6642 21 24 20.6642 24 20.25C24 19.8358 23.6642 19.5 23.25 19.5V21ZM0.75 19.5C0.335786 19.5 0 19.8358 0 20.25C0 20.6642 0.335786 21 0.75 21V19.5ZM10.5 8C10.0858 8 9.75 8.33579 9.75 8.75C9.75 9.16421 10.0858 9.5 10.5 9.5V8ZM1.5 9C1.5 9.41421 1.83579 9.75 2.25 9.75C2.66421 9.75 3 9.41421 3 9H1.5ZM3 16C3 15.5858 2.66421 15.25 2.25 15.25C1.83579 15.25 1.5 15.5858 1.5 16H3ZM6 6C6 6.41421 6.33579 6.75 6.75 6.75C7.16421 6.75 7.5 6.41421 7.5 6H6ZM7.5 19C7.5 18.5858 7.16421 18.25 6.75 18.25C6.33579 18.25 6 18.5858 6 19H7.5ZM10.5 16C10.5 15.5858 10.1642 15.25 9.75 15.25C9.33579 15.25 9 15.5858 9 16H10.5ZM1 11.75C0.585786 11.75 0.25 12.0858 0.25 12.5C0.25 12.9142 0.585786 13.25 1 13.25V11.75ZM5.46967 14.4697C5.17678 14.7626 5.17678 15.2374 5.46967 15.5303C5.76256 15.8232 6.23744 15.8232 6.53033 15.5303L5.46967 14.4697ZM8.5 12.5L9.03033 13.0303C9.32322 12.7374 9.32322 12.2626 9.03033 11.9697L8.5 12.5ZM6.53033 9.46967C6.23744 9.17678 5.76256 9.17678 5.46967 9.46967C5.17678 9.76256 5.17678 10.2374 5.46967 10.5303L6.53033 9.46967ZM18 13.5H21V12H18V13.5ZM21 13.5H22.5C22.5 12.6716 21.8284 12 21 12V13.5ZM18 13.5V12C17.1716 12 16.5 12.6716 16.5 13.5H18ZM10.5 9.5H13.5V8H10.5V9.5ZM13.5 9.5H15C15 8.67157 14.3284 8 13.5 8V9.5ZM3 5.5H6V4H3V5.5ZM6 5.5H7.5C7.5 4.67157 6.82843 4 6 4V5.5ZM3 5.5V4C2.17157 4 1.5 4.67157 1.5 5.5H3ZM2.25 19.5H0.75V21H2.25V19.5ZM6.75 19.5H2.25V21H6.75V19.5ZM9.75 19.5H6.75V21H9.75V19.5ZM14.25 19.5H9.75V21H14.25V19.5ZM13.5 9.5V20.25H15V9.5H13.5ZM17.25 19.5H14.25V21H17.25V19.5ZM18 20.25V13.5H16.5V20.25H18ZM23.25 19.5H21.75V21H23.25V19.5ZM21.75 19.5H17.25V21H21.75V19.5ZM21 13.5V20.25H22.5V13.5H21ZM3 9V5.5H1.5V9H3ZM3 20.25V16H1.5V20.25H3ZM6 5.5V6H7.5V5.5H6ZM6 19V20.25H7.5V19H6ZM10.5 20.25V16H9V20.25H10.5ZM6.53033 15.5303L9.03033 13.0303L7.96967 11.9697L5.46967 14.4697L6.53033 15.5303ZM9.03033 11.9697L6.53033 9.46967L5.46967 10.5303L7.96967 13.0303L9.03033 11.9697ZM1 13.25H8.5V11.75H1V13.25Z" fill="black"/>
</svg>

<svg width="24" height="24" viewBox="0 0 24 24" fill="none" xmlns="http://www.w3.org/2000/svg"><path d="M23.25 21a.75.75 0 0 0 0-1.5V21ZM.75 19.5a.75.75 0 0 0 0 1.5v-1.5ZM10.5 8a.75.75 0 0 0 0 1.5V8Zm-9 1A.75.75 0 0 0 3 9H1.5ZM3 16a.75.75 0 0 0-1.5 0H3ZM6 6a.75.75 0 0 0 1.5 0H6Zm1.5 13A.75.75 0 0 0 6 19h1.5Zm3-3A.75.75 0 0 0 9 16h1.5ZM1 11.75a.75.75 0 0 0 0 1.5v-1.5Zm4.47 2.72a.75.75 0 1 0 1.06 1.06l-1.06-1.06ZM8.5 12.5l.53.53a.75.75 0 0 0 0-1.06l-.53.53ZM6.53 9.47a.75.75 0 0 0-1.06 1.06l1.06-1.06ZM18 13.5h3V12h-3v1.5Zm3 0h1.5A1.5 1.5 0 0 0 21 12v1.5Zm-3 0V12a1.5 1.5 0 0 0-1.5 1.5H18Zm-7.5-4h3V8h-3v1.5Zm3 0H15A1.5 1.5 0 0 0 13.5 8v1.5ZM3 5.5h3V4H3v1.5Zm3 0h1.5A1.5 1.5 0 0 0 6 4v1.5Zm-3 0V4a1.5 1.5 0 0 0-1.5 1.5H3Zm-.75 14H.75V21h1.5v-1.5Zm4.5 0h-4.5V21h4.5v-1.5Zm3 0h-3V21h3v-1.5Zm4.5 0h-4.5V21h4.5v-1.5Zm-.75-10v10.75H15V9.5h-1.5Zm3.75 10h-3V21h3v-1.5Zm.75.75V13.5h-1.5v6.75H18Zm5.25-.75h-1.5V21h1.5v-1.5Zm-1.5 0h-4.5V21h4.5v-1.5Zm-.75-6v6.75h1.5V13.5H21ZM3 9V5.5H1.5V9H3Zm0 11.25V16H1.5v4.25H3ZM6 5.5V6h1.5v-.5H6ZM6 19v1.25h1.5V19H6Zm4.5 1.25V16H9v4.25h1.5Zm-3.97-4.72 2.5-2.5-1.06-1.06-2.5 2.5 1.06 1.06Zm2.5-3.56-2.5-2.5-1.06 1.06 2.5 2.5 1.06-1.06ZM1 13.25h7.5v-1.5H1v1.5Z" fill="#000"/></svg>
